X:1
T:Enumclaw, 87.87 D
T:Enumclaw, 87.87 D
T:Henry A. Lewis, 1887
T:Public Domain Courtesy of the Cyber Hymnal™
C:Henry A. Lewis, 1887
Z:Public Domain
Z:Courtesy of the Cyber Hymnal™
%%score ( 1 2 ) ( 3 4 )
L:1/8
Q:1/4=110
M:9/8
K:G
V:1 treble 
V:2 treble 
V:3 bass 
V:4 bass 
V:1
 [B,G]2 [CA] | [DB]3 [DB]3 (cB)[Dc] | [Dd]3 [DB]3 (BG)[GB] | [FA]3- [FA]2 [DF] [DG]2 [DA] | %4
 [DB]6 [B,G]2 [CA] | [DB]3 [DB]3 (cB)[Dc] | [Dd]3 [DB]3 (BG)[GB] | [Fc]3- [Fc]2 [FA] (FE)[DF] | %8
 [DG]6 ([DB][Ec])[Fd] | [Ge]8 [Ge] [Gc]2 [Ge] | [Gd]6 [GB]3 [Gd]2 [DB] | [FA]8 F [EG]2 [DA] | %12
 [DB]6- [DB]3 ([DB][Ec])[Fd] | [Ge]8 [Ge] [Gc]2 [Ge] | [Gd]6 [DB]3 (BG)[GB] | %15
 c6- [Fc]2 [FA] (FE)[DF] | G6- [DG]3 |] %17
V:2
 x3 | x6 D2 x | x6 D2 x | x9 | x9 | x6 D2 x | x6 D2 x | x6 D2 x | x9 | x12 | x12 | x8 F x3 | x12 | %13
 x12 | x9 D2 x | (F2 F F2 F x D2) x3 | D3 E3 x3 |] %17
V:3
 [G,,G,]2 [G,,G,] | [G,,G,]3 G,3 (A,G,)[G,A,] | [G,B,]3 G,3 (G,B,)[G,C] | %3
 [D,C]3- [D,C]2 [C,A,] [C,G,]2 [A,,F,] | [G,,G,]6 [G,,G,]2 [G,,G,] | [G,,G,]3 G,3 (A,G,)[G,A,] | %6
 [G,B,]3 G,3 (G,B,)[G,D] | [D,D]3- [D,D]2 [D,D] [D,C]2 [D,C] | [G,,B,]6 z3 | %9
 (.[C,C]3 .[C,C]3 .[C,C]3) E2 C | [G,B,]3 [G,B,]3 [G,D]2 [G,D] [G,B,]2 G, | %11
 ([D,A,]2 [^C,A,] [D,A,]2 [E,A,] [F,A,]2) [D,A,] [E,A,]2 [F,A,] | G,2 G, G,2 G, G,3 z3 | %13
 .[C,C]3 .[C,C]3 .[C,C]3 E2 C | [G,B,]3 [G,B,]3 G,2 G,G,B,[G,D] | D6- [D,D]2 [D,D] [D,C]2 [D,C] | %16
 B,3 C3 [G,,B,]3 |] %17
V:4
 x3 | x3 G,3 G,2 x | x3 G,3 G,2 x | x9 | x9 | x3 G,3 G,2 x | x3 G,3 G,2 x | x9 | x9 | x9 C,3 | %10
 x11 G, | x12 | G,2 G, G,2 G, G,3 x3 | x9 C,3 | x6 G,2 G, G,2 x | D,2 D, D,2 D, x6 | G,,6- x3 |] %17

